public/icon.svg

<svg width="62" height="62" viewBox="0 0 62 62" fill="none" xmlns="http://www.w3.org/2000/svg">
<ellipse cx="30.5079" cy="31" rx="30.5079" ry="31" fill="#A78BFA"/>
<ellipse cx="21.6508" cy="31" rx="21.6508" ry="22" fill="#FB923C"/>
<path d="M47.9509 8C49.9437 8 51.4582 8.24557 52.4944 8.7367C53.5307 9.1869 54.4474 9.6985 55.2445 10.2715C55.7227 10.558 56.1014 10.7831 56.3803 10.9468C56.6992 11.0696 56.9981 11.131 57.2771 11.131C57.6757 11.131 57.9546 10.9059 58.1141 10.4557C58.3133 10.0055 58.4728 9.33015 58.5923 8.42974H59.9674C59.9275 9.12551 59.8677 9.96453 59.788 10.9468C59.7481 11.8881 59.7083 13.1569 59.6684 14.7531C59.6684 16.3083 59.6684 18.3752 59.6684 20.9536H58.2934C58.1739 18.9891 57.7554 17.1064 57.038 15.3056C56.3206 13.5048 55.2644 12.0314 53.8694 10.8854C52.5144 9.73943 50.7209 9.16644 48.4889 9.16644C46.3766 9.16644 44.6229 9.82128 43.228 11.131C41.8729 12.4407 41.1954 14.1596 41.1954 16.2879C41.1954 18.1296 41.6537 19.6849 42.5704 20.9536C43.4871 22.1814 44.7027 23.307 46.2172 24.3302C47.7715 25.3124 49.4455 26.3765 51.239 27.5225C53.3115 28.8322 55.1448 30.1419 56.7391 31.4516C58.3731 32.7203 59.6485 34.1323 60.5652 35.6876C61.5217 37.2428 62 39.1255 62 41.3356C62 43.955 61.4221 46.1241 60.2663 47.8431C59.1105 49.5621 57.576 50.8513 55.6629 51.7108C53.7499 52.5703 51.6375 53 49.3259 53C47.2136 53 45.5396 52.7544 44.3041 52.2633C43.0686 51.7722 42.0124 51.2606 41.1356 50.7285C40.2588 50.1555 39.5812 49.869 39.1029 49.869C38.7044 49.869 38.4055 50.0941 38.2062 50.5443C38.0468 50.9945 37.9073 51.6698 37.7877 52.5703H36.4127C36.4924 51.7108 36.5323 50.708 36.5323 49.5621C36.5721 48.3752 36.592 46.8404 36.592 44.9577C36.6319 43.075 36.6518 40.7012 36.6518 37.8363H38.0268C38.1863 40.2919 38.6247 42.5839 39.3421 44.7121C40.0993 46.8404 41.2352 48.5593 42.7497 49.869C44.3041 51.1378 46.3567 51.7722 48.9074 51.7722C50.2227 51.7722 51.4582 51.5061 52.614 50.9741C53.8097 50.4011 54.7861 49.5211 55.5434 48.3342C56.3006 47.1064 56.6793 45.5307 56.6793 43.6071C56.6793 41.9291 56.2807 40.4761 55.4836 39.2483C54.7263 37.9795 53.6502 36.8131 52.2553 35.749C50.8603 34.6439 49.2263 33.5184 47.3531 32.3724C45.4798 31.1855 43.7262 29.9782 42.0921 28.7503C40.458 27.5225 39.1428 26.1105 38.1464 24.5143C37.1899 22.8772 36.7116 20.9127 36.7116 18.6207C36.7116 16.206 37.2297 14.221 38.266 12.6658C39.3421 11.0696 40.737 9.90314 42.4508 9.16644C44.1646 8.38881 45.998 8 47.9509 8Z" fill="#E8E6F0"/>
<path d="M15.473 9V10.2147C14.0976 10.2552 13.0458 10.4171 12.3177 10.7006C11.63 10.9435 11.1648 11.4294 10.9221 12.1582C10.6794 12.8465 10.558 13.9397 10.558 15.4378V45.5621C10.558 47.0198 10.6794 48.113 10.9221 48.8418C11.1648 49.5706 11.63 50.0565 12.3177 50.2994C13.0458 50.5019 14.0976 50.6031 15.473 50.6031H19.9025C21.8038 50.6031 23.3409 50.4007 24.5141 49.9958C25.7276 49.5909 26.6782 48.9633 27.3659 48.113C28.0941 47.2222 28.6402 46.048 29.0043 44.5904C29.3683 43.1328 29.6515 41.3512 29.8537 39.2458H31.2494C31.128 40.5009 31.0673 42.161 31.0673 44.226C31.0673 44.9953 31.0875 46.1088 31.128 47.5664C31.2089 48.9835 31.3303 50.4614 31.4921 52C29.429 51.919 27.103 51.8785 24.5141 51.8785C21.9251 51.838 19.6193 51.8178 17.5967 51.8178C16.7068 51.8178 15.5539 51.8178 14.1381 51.8178C12.7627 51.8178 11.2659 51.838 9.64786 51.8785C8.02977 51.8785 6.39145 51.8988 4.73291 51.9393C3.07437 51.9393 1.49673 51.9595 0 52V50.7853C1.37538 50.7043 2.40691 50.5424 3.0946 50.2994C3.82274 50.0565 4.30816 49.5706 4.55088 48.8418C4.79359 48.113 4.91495 47.0198 4.91495 45.5621V15.4378C4.91495 13.9397 4.79359 12.8465 4.55088 12.1582C4.30816 11.4294 3.82274 10.9435 3.0946 10.7006C2.40691 10.4171 1.37538 10.2552 0 10.2147V9C0.849497 9.04049 1.96193 9.08098 3.33731 9.12147C4.71269 9.16196 6.18919 9.1822 7.76683 9.1822C9.18266 9.1822 10.5783 9.16196 11.9536 9.12147C13.3695 9.08098 14.5426 9.04049 15.473 9Z" fill="#E8E6F0"/>
</svg>

<svg xmlns="http://www.w3.org/2000/svg" width="62" height="62" fill="none" viewBox="0 0 62 62"><ellipse cx="30.508" cy="31" fill="#a78bfa" rx="30.508" ry="31"/><ellipse cx="21.651" cy="31" fill="#fb923c" rx="21.651" ry="22"/><path fill="#e8e6f0" d="M47.95 8q2.99 0 4.544.737 1.555.675 2.75 1.534.718.43 1.136.676.48.184.897.184.599 0 .837-.675.3-.675.478-2.026h1.375q-.06 1.044-.179 2.517-.06 1.412-.12 3.806v6.2h-1.375a18.1 18.1 0 0 0-1.255-5.647q-1.076-2.702-3.169-4.42-2.032-1.72-5.38-1.72-3.168 0-5.261 1.965-2.033 1.965-2.033 5.157 0 2.763 1.375 4.666 1.376 1.841 3.647 3.376 2.333 1.473 5.022 3.193 3.11 1.965 5.5 3.929 2.452 1.902 3.826 4.236Q62 38.02 62 41.336q0 3.928-1.734 6.507t-4.603 3.868T49.326 53q-3.168 0-5.022-.737-1.853-.735-3.168-1.535-1.316-.858-2.033-.859-.598 0-.897.675-.24.675-.418 2.026h-1.375q.12-1.29.12-3.008.06-1.78.059-4.604.06-2.825.06-7.122h1.375q.24 3.684 1.315 6.876 1.136 3.192 3.408 5.157 2.332 1.903 6.157 1.903 1.974 0 3.707-.798 1.793-.86 2.93-2.64 1.135-1.842 1.135-4.727 0-2.516-1.195-4.359-1.137-1.903-3.229-3.499-2.093-1.657-4.902-3.377a80 80 0 0 1-5.26-3.622q-2.452-1.841-3.947-4.236-1.434-2.455-1.434-5.893 0-3.623 1.554-5.955 1.614-2.394 4.185-3.5Q45.02 8 47.95 8M15.473 9v1.215q-2.063.06-3.155.486-1.032.363-1.396 1.457-.364 1.033-.364 3.28v30.124q0 2.187.364 3.28.364 1.094 1.396 1.457 1.092.304 3.155.304h4.43q2.85 0 4.611-.607 1.82-.608 2.852-1.883 1.092-1.336 1.638-3.523.546-2.186.85-5.344h1.395q-.182 1.883-.182 4.98 0 1.155.061 3.34.12 2.126.364 4.434a180 180 0 0 0-6.978-.121q-3.884-.061-6.917-.061h-3.459q-2.063 0-4.49.06-2.427 0-4.915.061Q2.245 51.94 0 52v-1.215q2.063-.12 3.095-.486 1.092-.363 1.456-1.457.364-1.093.364-3.28V15.438q0-2.247-.364-3.28-.364-1.093-1.456-1.457-1.032-.426-3.095-.486V9q1.275.06 3.337.121a151 151 0 0 0 8.617 0A244 244 0 0 0 15.473 9"/></svg>
